svg/067-black.svg

<svg height="288pt" stroke-linejoin="round" viewBox="0 0 432 288" width="432pt" xmlns="http://www.w3.org/2000/svg"><g stroke-linejoin="round"><path d="m0 288h432v-288h-432z" fill="none"/><path d="m135.805195 192.698171c8.674055 15.023908 21.152709 27.502565 36.176616 36.176624 15.023906 8.674059 32.070067 13.241565 49.418181 13.241567s34.394275-4.567502 49.418183-13.241558 27.502564-21.15271 36.176622-36.176617 13.241564-32.070068 13.241565-49.418182-4.567504-34.394274-13.24156-49.418182c-8.674057-15.023908-21.152712-27.502564-36.176619-36.176621-15.023908-8.674057-32.070068-13.241562-49.418182-13.241562v98.836361z"/></g></svg>

<?xml version="1.0" encoding="utf-8" standalone="no"?>
<!DOCTYPE svg PUBLIC "-//W3C//DTD SVG 1.1//EN"
  "http://www.w3.org/Graphics/SVG/1.1/DTD/svg11.dtd">
<!-- Created with matplotlib (http://matplotlib.org/) -->
<svg height="288pt" version="1.1" viewBox="0 0 432 288" width="432pt" xmlns="http://www.w3.org/2000/svg" xmlns:xlink="http://www.w3.org/1999/xlink">
 <defs>
  <style type="text/css">
*{stroke-linecap:butt;stroke-linejoin:round;}
  </style>
 </defs>
 <g id="figure_1">
  <g id="patch_1">
   <path d="M 0 288 
L 432 288 
L 432 0 
L 0 0 
z
" style="fill:none;"/>
  </g>
  <g id="axes_1">
   <g id="patch_2">
    <path d="M 135.805195 192.698171 
C 144.47925 207.722079 156.957904 220.200736 171.981811 228.874795 
C 187.005717 237.548854 204.051878 242.11636 221.399992 242.116362 
C 238.748106 242.116364 255.794267 237.54886 270.818175 228.874804 
C 285.842083 220.200748 298.320739 207.722094 306.994797 192.698187 
C 315.668855 177.67428 320.236361 160.628119 320.236362 143.280005 
C 320.236363 125.931891 315.668858 108.885731 306.994802 93.861823 
C 298.320745 78.837915 285.84209 66.359259 270.818183 57.685202 
C 255.794275 49.011145 238.748115 44.44364 221.400001 44.44364 
L 221.400001 143.280001 
L 135.805195 192.698171 
z
"/>
   </g>
   <g id="patch_3">
    <path d="M 221.400019 44.44364 
C 204.051905 44.443636 187.005744 49.011138 171.981835 57.685193 
C 156.957926 66.359247 144.479268 78.837901 135.805209 93.861807 
C 127.13115 108.885713 122.563642 125.931873 122.56364 143.279987 
C 122.563637 160.628101 127.13114 177.674262 135.805195 192.698171 
L 140.084935 190.227262 
C 131.844583 175.954549 127.505455 159.760696 127.505458 143.279988 
C 127.50546 126.799279 131.844592 110.605427 140.084949 96.332717 
C 148.325305 82.060006 160.18003 70.205285 174.452743 61.964933 
C 188.725457 53.724581 204.91931 49.385455 221.400018 49.385458 
z
"/>
   </g>
   <g id="matplotlib.axis_1"/>
   <g id="matplotlib.axis_2"/>
  </g>
 </g>
</svg>
